assets/dude/Did–Waylon.svg

<svg width="227" height="124" viewBox="0 0 227 124" fill="none" xmlns="http://www.w3.org/2000/svg">
<path d="M53.9403 12.7199H49.4603C48.4803 12.7199 48.2003 11.3199 48.2003 11.3199C46.5203 4.87988 40.5003 0.119873 33.5003 0.119873C26.5003 0.119873 20.4803 4.87988 18.8003 11.3199C18.8003 11.3199 18.5203 12.7199 17.5403 12.7199H1.58031C0.880313 12.7199 0.320312 13.2799 0.320312 13.9799V46.7399C0.320312 47.4399 0.880313 47.9999 1.58031 47.9999H15.4403C16.1403 47.9999 16.7003 48.5599 16.7003 49.2599V74.4599C16.7003 75.1599 16.1403 75.7199 15.4403 75.7199H1.58031C0.880313 75.7199 0.320312 76.2799 0.320312 76.9799V109.74C0.320312 110.44 0.880313 111 1.58031 111H17.5403C18.5203 111 18.8003 112.4 18.8003 112.4C20.4803 118.84 26.5003 123.6 33.5003 123.6C40.5003 123.6 46.5203 118.84 48.2003 112.4C48.2003 112.4 48.4803 111 49.4603 111H53.9403C70.6003 111 84.1803 97.4199 84.1803 80.7599V42.9599C84.1803 26.2999 70.6003 12.7199 53.9403 12.7199ZM74.1003 66.8999C74.1003 71.7999 70.1803 75.7199 65.2803 75.7199H28.0403C27.3403 75.7199 26.7803 75.1599 26.7803 74.4599V49.2599C26.7803 48.5599 27.3403 47.9999 28.0403 47.9999H65.2803C70.1803 47.9999 74.1003 51.9199 74.1003 56.8199V66.8999Z" fill="#FF1C31"/>
<path d="M92.0586 109.74C92.0586 110.44 92.6186 111 93.3186 111H97.5186C98.4986 111 98.7786 112.4 98.7786 112.4C100.459 118.84 106.479 123.6 113.479 123.6C120.479 123.6 126.499 118.84 128.179 112.4C128.179 112.4 128.459 111 129.439 111H133.639C134.339 111 134.899 110.44 134.899 109.74V76.9799C134.899 76.2799 134.339 75.7199 133.639 75.7199H119.779C119.079 75.7199 118.519 75.1599 118.519 74.4599V49.2599C118.519 48.5599 119.079 47.9999 119.779 47.9999H133.639C134.339 47.9999 134.899 47.4399 134.899 46.7399V13.9799C134.899 13.2799 134.339 12.7199 133.639 12.7199H129.439C128.459 12.7199 128.179 11.3199 128.179 11.3199C126.499 4.87988 120.479 0.119873 113.479 0.119873C106.479 0.119873 100.459 4.87988 98.7786 11.3199C98.7786 11.3199 98.4986 12.7199 97.5186 12.7199H93.3186C92.6186 12.7199 92.0586 13.2799 92.0586 13.9799V46.7399C92.0586 47.4399 92.6186 47.9999 93.3186 47.9999H107.179C107.879 47.9999 108.439 48.5599 108.439 49.2599V74.4599C108.439 75.1599 107.879 75.7199 107.179 75.7199H93.3186C92.6186 75.7199 92.0586 76.2799 92.0586 76.9799V109.74Z" fill="#FF1C31"/>
<path d="M196.401 12.7199H191.921C190.941 12.7199 190.661 11.3199 190.661 11.3199C188.981 4.87988 182.961 0.119873 175.961 0.119873C168.961 0.119873 162.941 4.87988 161.261 11.3199C161.261 11.3199 160.981 12.7199 160.001 12.7199H144.041C143.341 12.7199 142.781 13.2799 142.781 13.9799V46.7399C142.781 47.4399 143.341 47.9999 144.041 47.9999H157.901C158.601 47.9999 159.161 48.5599 159.161 49.2599V74.4599C159.161 75.1599 158.601 75.7199 157.901 75.7199H144.041C143.341 75.7199 142.781 76.2799 142.781 76.9799V109.74C142.781 110.44 143.341 111 144.041 111H160.001C160.981 111 161.261 112.4 161.261 112.4C162.941 118.84 168.961 123.6 175.961 123.6C182.961 123.6 188.981 118.84 190.661 112.4C190.661 112.4 190.941 111 191.921 111H196.401C213.061 111 226.641 97.4199 226.641 80.7599V42.9599C226.641 26.2999 213.061 12.7199 196.401 12.7199ZM216.561 66.8999C216.561 71.7999 212.641 75.7199 207.741 75.7199H170.501C169.801 75.7199 169.241 75.1599 169.241 74.4599V49.2599C169.241 48.5599 169.801 47.9999 170.501 47.9999H207.741C212.641 47.9999 216.561 51.9199 216.561 56.8199V66.8999Z" fill="#FF1C31"/>
</svg>

<svg xmlns="http://www.w3.org/2000/svg" fill="none" viewBox="0 0 227 124"><path fill="#FF1C31" d="M53.94 12.72h-4.48c-.98 0-1.26-1.4-1.26-1.4C46.52 4.88 40.5.12 33.5.12c-7 0-13.02 4.76-14.7 11.2 0 0-.28 1.4-1.26 1.4H1.58c-.7 0-1.26.56-1.26 1.26v32.76c0 .7.56 1.26 1.26 1.26h13.86c.7 0 1.26.56 1.26 1.26v25.2c0 .7-.56 1.26-1.26 1.26H1.58c-.7 0-1.26.56-1.26 1.26v32.76c0 .7.56 1.26 1.26 1.26h15.96c.98 0 1.26 1.4 1.26 1.4 1.68 6.44 7.7 11.2 14.7 11.2 7 0 13.02-4.76 14.7-11.2 0 0 .28-1.4 1.26-1.4h4.48c16.66 0 30.24-13.58 30.24-30.24v-37.8c0-16.66-13.58-30.24-30.24-30.24zM74.1 66.9c0 4.9-3.92 8.82-8.82 8.82H28.04c-.7 0-1.26-.56-1.26-1.26v-25.2c0-.7.56-1.26 1.26-1.26h37.24c4.9 0 8.82 3.92 8.82 8.82V66.9zM92.059 109.74c0 .7.56 1.26 1.26 1.26h4.2c.98 0 1.26 1.4 1.26 1.4 1.68 6.44 7.7 11.2 14.7 11.2 7 0 13.02-4.76 14.7-11.2 0 0 .28-1.4 1.26-1.4h4.2c.7 0 1.26-.56 1.26-1.26V76.98c0-.7-.56-1.26-1.26-1.26h-13.86c-.7 0-1.26-.56-1.26-1.26v-25.2c0-.7.56-1.26 1.26-1.26h13.86c.7 0 1.26-.56 1.26-1.26V13.98c0-.7-.56-1.26-1.26-1.26h-4.2c-.98 0-1.26-1.4-1.26-1.4-1.68-6.44-7.7-11.2-14.7-11.2-7 0-13.02 4.76-14.7 11.2 0 0-.28 1.4-1.26 1.4h-4.2c-.7 0-1.26.56-1.26 1.26v32.76c0 .7.56 1.26 1.26 1.26h13.86c.7 0 1.26.56 1.26 1.26v25.2c0 .7-.56 1.26-1.26 1.26h-13.86c-.7 0-1.26.56-1.26 1.26v32.76zM196.401 12.72h-4.48c-.98 0-1.26-1.4-1.26-1.4-1.68-6.44-7.7-11.2-14.7-11.2-7 0-13.02 4.76-14.7 11.2 0 0-.28 1.4-1.26 1.4h-15.96c-.7 0-1.26.56-1.26 1.26v32.76c0 .7.56 1.26 1.26 1.26h13.86c.7 0 1.26.56 1.26 1.26v25.2c0 .7-.56 1.26-1.26 1.26h-13.86c-.7 0-1.26.56-1.26 1.26v32.76c0 .7.56 1.26 1.26 1.26h15.96c.98 0 1.26 1.4 1.26 1.4 1.68 6.44 7.7 11.2 14.7 11.2 7 0 13.02-4.76 14.7-11.2 0 0 .28-1.4 1.26-1.4h4.48c16.66 0 30.24-13.58 30.24-30.24v-37.8c0-16.66-13.58-30.24-30.24-30.24zm20.16 54.18c0 4.9-3.92 8.82-8.82 8.82h-37.24c-.7 0-1.26-.56-1.26-1.26v-25.2c0-.7.56-1.26 1.26-1.26h37.24c4.9 0 8.82 3.92 8.82 8.82V66.9z"/></svg>
